**kern	**kern	**dynam
*part1	*part1	*part1
*staff2	*staff1	*
*I"Piano	*	*
*clefF4	*clefF4	*
*k[b-]	*k[b-]	*
=1	=1	=1
4AA	4r	.
4r	(12C#XL	.
.	12A	.
.	12EJ)	.
4r	4r	[
=	=	=
4r	4r	.
*	*clefG2	*
4DD' 4D	4d' 4f 4a 4dd	f
4D' 4F	4A' 4d	.
=	=	=
4r	4r	.
4BBB-' 4BB-	4f' 4b- 4dd 4ff	.
4BB-' 4D 4F	4B-' 4d 4f	.
=	=	=
4r	4r	.
4GGG' 4GG	4b-' 4dd 4gg 4bb-	.
4D' 4G 4B-	4d' 4g 4b-	.
=	=	=
4r	4r	.
4DDD' 4DD	4dd' 4ff 4aa 4ddd	.
4F' 4A 4d	4f' 4a 4dd	.
=	=	=
4r	4r	.
4AA'	4A' 4c#X 4a	p
4DD'	4A' 4d 4f	.
=	=	=
4AAA'	4A' 4c#X 4e	.
4AA' 4A	4a' 4cc#X 4ee 4aa	f
4DD' 4D	4bn' 4ff 4aa 4bbn	.
=	=	=
*-	*-	*-
!!!system-decoration: {(s1,s2)}
